X:1
T:Country Garden(s)
L:1/8
M:2/2
I:linebreak $
K:C
V:1 treble 
V:1
"A" x8 | g2 g>f e2 e2 | d2 d>c B2 B>c | d2 G2 A2 c2 | B3 A"B" G4 |] g>a g>e f2 d2 | g>a g>e f4 | %7
 g2 g>f e2 a2 |$ f3 e d2 B>c | d2 g>f e2 e2 | d>e d>c B2 B>c | d2 G2 A2 c2 | B3 A"C" G4 |] %13
 G2 c2 c2 e2 | d>e d>c B2 B>c |$ d2 G2 A2 c2 | B3 A G4 |] %17
